X:1
T:Hessian Dance. JJo8.001, The
%%VWML:JohnsonVol8-2184-p1-0
F:http://www.vwml.org/record/JohnsonVol8/2184/p1
Z:Transcribed by Simon Furey and Lewis Jones
B:J.Johnson Choice Collection Vol 8 1758
Z:vmp.Simon Wilson 2013 www.village-music-project.org.uk
Z:Dance added by John Chambers 2017
M:3/8
L:1/8
%Q:3/8=60
K:G
|: gdB | G>AG | DEF | (G/F/G/A/)G | gdB | G>AG | DEF | G3 :|
|: def | g2e | (f/g/a/g/f/e/) | (d/e/d/c/B/A/) | def | g2c | B(A/G/)(A/F/) | G2G |
y2 def | g2e | (f/g/a/g/f/e/) | (d/e/d/c/B/A/) | def | g2c | BA/G/A/F/ | G2g :|
|: d2e | B2c | {B}AGF | GDg | d2e | B2c | {B}AGF | !fermata!G2g :|
W: First Man cast off and turn the 3d Wo. .| 1st
W:Wo. cast off and turn the 3d Man :| Lead thro'
W:the Bottom and cast up :||. Lead thro' the top and
W:cast off :||:. the 1st and 3d Cu. foot it to the
W:Wall .:||: Right hands and Left at top .:||:.
W:
T:Arne's Maggot. JJo8.002
T:Arne's Jig,aka. JJo8.002
B:J.Johnson Choice Collection Vol 8 1758
Z:vmp.Simon Wilson 2013 www.village-music-project.org.uk
Z:Dance added by John Chambers 2017
M:C|
L:1/8
%Q:1/2=90
K:G
|: G2(BG) (Bd)(BG) | F2(AF) (Ac)(AF) | G2(BG) (Bd)(gB) | (cA) (Fd) (BG)G2 :|
|: Tg2(bg) (af)(ed) | e2Tf2{ef}(g/f/g/a/ g)d | Tg2(bg) (af)(ed) | e2Tf2(g/f/g/a/ g)d |
y2 (ce)(Ac) (Bd)(GB) | (Aa)Tf2{ef}(gb)(Bd) | (ce)(Ac) (Bd)(GB) | (A/B/c) DFTG2G,2 :|
W: First Man set to the 2d Wo. and
W:turn .| 1st Wo. and wd Man the
W:same :| Cross over two Cu. :||. Lead
W:up to the top and cast off :||: Hands
W:4 round at Bottom .:||: Right hands
W:and Left at top .:||:.
W:
